storage/app/icons/phosphoricons/bold/folder-simple-minus-bold.svg

<svg xmlns="http://www.w3.org/2000/svg" fill="currentColor" viewBox="0 0 256 256"><path d="M216 68h-84l-26.67-20a20.12 20.12 0 0 0-12-4H40a20 20 0 0 0-20 20v136a20 20 0 0 0 20 20h176.89A19.13 19.13 0 0 0 236 200.89V88a20 20 0 0 0-20-20m-4 128H44V68h48l28.8 21.6A12 12 0 0 0 128 92h84Zm-108-64h48a12 12 0 0 1 0 24h-48a12 12 0 0 1 0-24"/></svg>

<svg xmlns="http://www.w3.org/2000/svg" viewBox="0 0 256 256" fill="currentColor"><path d="M216,68H132L105.33,48a20.12,20.12,0,0,0-12-4H40A20,20,0,0,0,20,64V200a20,20,0,0,0,20,20H216.89A19.13,19.13,0,0,0,236,200.89V88A20,20,0,0,0,216,68Zm-4,128H44V68H92l28.8,21.6A12,12,0,0,0,128,92h84ZM104,132h48a12,12,0,0,1,0,24H104a12,12,0,0,1,0-24Z"/></svg>
